epam-assets/icon-sources/18/content-link-opt.2.svg

<svg width="18" height="18" viewBox="0 0 18 18" fill="none" xmlns="http://www.w3.org/2000/svg">
<g id="18/content-link-opt.2">
<g id="icon">
<path d="M10.0608 4.75764C10.9395 3.87896 12.3641 3.87896 13.2428 4.75764C14.1215 5.63632 14.1215 7.06094 13.2428 7.93962L11.6518 9.53061L12.7125 10.5913L14.3035 9.00028C15.7679 7.53582 15.7679 5.16145 14.3035 3.69698C12.839 2.23252 10.4646 2.23252 9.00017 3.69698L7.40918 5.28797L8.46984 6.34863L10.0608 4.75764Z" fill="#6C6F80"/>
<path d="M12.1823 6.87927L6.87902 12.1826L5.81836 11.1219L11.1217 5.81861L12.1823 6.87927Z" fill="#6C6F80"/>
<path d="M6.34863 8.47009L4.75764 10.0611C3.87896 10.9398 3.87896 12.3644 4.75764 13.2431C5.63632 14.1217 7.06094 14.1217 7.93962 13.2431L9.53061 11.6521L10.5913 12.7127L9.00028 14.3037C7.53582 15.7682 5.16145 15.7682 3.69698 14.3037C2.23252 12.8393 2.23252 10.4649 3.69698 9.00042L5.28797 7.40943L6.34863 8.47009Z" fill="#6C6F80"/>
</g>
</g>
</svg>

<svg xmlns="http://www.w3.org/2000/svg" width="18" height="18" fill="none" viewBox="0 0 18 18">
  <path fill="#6C6F80" d="M10.06 4.758a2.25 2.25 0 0 1 3.183 3.182l-1.591 1.59 1.06 1.061 1.591-1.59A3.75 3.75 0 0 0 9 3.696L7.41 5.288l1.06 1.06 1.59-1.59Z"/>
  <path fill="#6C6F80" d="M12.182 6.88 6.88 12.182l-1.06-1.061 5.303-5.303 1.06 1.06Z"/>
  <path fill="#6C6F80" d="m6.349 8.47-1.591 1.591a2.25 2.25 0 0 0 3.182 3.182l1.59-1.59 1.061 1.06-1.59 1.59A3.75 3.75 0 1 1 3.696 9l1.591-1.59 1.06 1.06Z"/>
</svg>
